build/img/tg.svg

<svg width="23" height="20" viewBox="0 0 23 20" fill="none" xmlns="http://www.w3.org/2000/svg">
<path fill-rule="evenodd" clip-rule="evenodd" d="M20.3891 0.699988C20.6596 0.58614 20.9557 0.546875 21.2465 0.586278C21.5373 0.625682 21.8123 0.742314 22.0427 0.924035C22.2732 1.10576 22.4507 1.34592 22.5568 1.61954C22.663 1.89315 22.6938 2.19021 22.6462 2.4798L20.1637 17.5381C19.9228 18.9907 18.3291 19.8236 16.997 19.1001C15.8827 18.4948 14.2277 17.5622 12.739 16.5891C11.9947 16.102 9.71466 14.5422 9.99488 13.4323C10.2357 12.4833 14.0668 8.9171 16.256 6.79688C17.1152 5.96389 16.7233 5.48336 15.7087 6.24958C13.1878 8.15198 9.14329 11.045 7.80569 11.8594C6.62572 12.5774 6.01056 12.7 5.27499 12.5774C3.93302 12.3541 2.68847 12.0082 1.67268 11.5868C0.300063 11.0176 0.366833 9.13055 1.67159 8.58106L20.3891 0.699988Z" fill="#3F3740" fill-opacity="0.3"/>
</svg>

<svg width="23" height="20" fill="none" xmlns="http://www.w3.org/2000/svg"><path fill-rule="evenodd" clip-rule="evenodd" d="M20.39.7a1.642 1.642 0 012.256 1.78l-2.482 15.058c-.241 1.453-1.835 2.286-3.167 1.562-1.114-.605-2.77-1.538-4.258-2.51-.744-.488-3.024-2.048-2.744-3.158.24-.949 4.072-4.515 6.261-6.635.86-.833.467-1.314-.547-.547-2.521 1.902-6.566 4.795-7.903 5.61-1.18.717-1.795.84-2.531.717-1.342-.223-2.587-.569-3.602-.99C.3 11.017.367 9.13 1.672 8.58L20.389.7z" fill="#3F3740" fill-opacity=".3"/></svg>
